images/InReach_Logo.svg

<svg width="369" height="144" viewBox="0 0 369 144" xmlns="http://www.w3.org/2000/svg" xmlns:xlink="http://www.w3.org/1999/xlink"><title>01_InReach_Logo</title><defs><path id="a" d="M.06.685h368.392V143.94H.06"/></defs><g fill="none" fill-rule="evenodd"><mask id="b" fill="#fff"><use xlink:href="#a"/></mask><path d="M15.746 133.104l1.305 4.738h.226l1.418-4.738 10.97-30.262h4.628l-15.336 40.374h-3.582L0 102.842h4.624l11.122 30.262M53.122 105.898c-3.31 0-6.08 1.262-8.32 3.78-2.24 2.52-3.545 5.676-3.92 9.468l.077.19h23.657v-1.114c0-3.504-1.03-6.428-3.098-8.783-2.066-2.36-4.863-3.542-8.398-3.542m.562 38.1c-5.05 0-9.248-1.863-12.595-5.597-3.345-3.727-5.02-8.454-5.02-14.176v-2.056c0-5.767 1.662-10.56 4.983-14.363 3.32-3.806 7.344-5.708 12.07-5.708 4.95 0 8.845 1.567 11.68 4.7 2.837 3.135 4.254 7.31 4.254 12.538v3.81h-28.51v1.076c0 4.543 1.205 8.342 3.62 11.395 2.414 3.052 5.586 4.58 9.517 4.58 2.786 0 5.162-.386 7.127-1.155 1.966-.774 3.646-1.878 5.04-3.324l1.9 3.062c-1.517 1.596-3.438 2.867-5.764 3.808-2.326.944-5.094 1.412-8.302 1.412M79.854 102.842l.41 7.054c1.293-2.49 3.043-4.41 5.244-5.77 2.202-1.356 4.806-2.033 7.818-2.033 4.378 0 7.713 1.34 10 4.013 2.288 2.673 3.434 6.848 3.434 12.518v24.592h-4.48v-24.604c0-4.636-.864-7.91-2.593-9.833-1.73-1.92-4.183-2.878-7.367-2.878-3.138 0-5.693.828-7.67 2.485-1.978 1.657-3.402 3.858-4.27 6.604v28.226H75.9v-40.374h3.954M122.405 102.842h8.883v3.657h-8.883v26.305c0 2.637.477 4.51 1.436 5.618.96 1.11 2.235 1.66 3.825 1.66.724 0 1.425-.034 2.11-.095.684-.063 1.475-.167 2.37-.317l.673 3.32c-.75.325-1.657.577-2.725.752-1.072.17-2.138.258-3.21.258-2.837 0-5.044-.894-6.622-2.686-1.58-1.79-2.37-4.627-2.37-8.51V106.5h-6.977v-3.658h11.492M164.387 136.616c-1.294 2.357-3.037 4.18-5.224 5.464-2.19 1.28-4.774 1.918-7.764 1.918-4.255 0-7.587-1.44-10-4.327-2.413-2.883-3.618-7.364-3.618-13.43V102.84h4.477v23.52c0 4.936.84 8.476 2.52 10.615 1.675 2.146 4.058 3.217 7.144 3.217 3.384 0 6.08-.76 8.096-2.282 2.014-1.52 3.422-3.612 4.22-6.277v-28.793h4.476v40.374h-3.955l-.373-6.6M196.668 106.684l-3.32-.224c-2.813 0-5.118.793-6.922 2.37-1.805 1.58-3.093 3.75-3.862 6.51v27.876h-4.48v-40.374h3.918l.562 6.716v.446c1.168-2.487 2.734-4.427 4.7-5.82 1.964-1.396 4.304-2.09 7.013-2.09.575 0 1.13.046 1.662.132.535.088.977.182 1.325.28l-.597 4.178M215.643 105.898c-3.31 0-6.08 1.262-8.32 3.78-2.24 2.52-3.546 5.676-3.92 9.468l.075.19h23.658v-1.114c0-3.504-1.03-6.428-3.098-8.783-2.065-2.36-4.86-3.542-8.395-3.542m.56 38.1c-5.05 0-9.247-1.863-12.595-5.597-3.344-3.727-5.02-8.454-5.02-14.176v-2.056c0-5.767 1.664-10.56 4.984-14.363 3.32-3.806 7.346-5.708 12.07-5.708 4.953 0 8.845 1.567 11.682 4.7 2.836 3.135 4.253 7.31 4.253 12.538v3.81h-28.51v1.076c0 4.543 1.206 8.342 3.62 11.395 2.415 3.052 5.586 4.58 9.517 4.58 2.785 0 5.163-.386 7.125-1.155 1.966-.774 3.645-1.878 5.04-3.324l1.9 3.062c-1.518 1.596-3.44 2.867-5.764 3.808-2.326.944-5.094 1.412-8.302 1.412M262.24 132.932c0-1.884-.778-3.535-2.33-4.95-1.556-1.413-4.363-2.566-8.418-3.463-4.827-1.044-8.387-2.427-10.69-4.138-2.302-1.72-3.453-4.144-3.453-7.28 0-3.084 1.302-5.688 3.9-7.818 2.6-2.128 6.04-3.19 10.318-3.19 4.553 0 8.16 1.126 10.82 3.378 2.663 2.25 3.934 5.07 3.808 8.45l-.075.226h-4.14c0-2.213-.938-4.144-2.82-5.783-1.877-1.643-4.41-2.467-7.592-2.467-3.26 0-5.703.706-7.33 2.1-1.636 1.397-2.448 3.04-2.448 4.917 0 1.86.703 3.396 2.11 4.605 1.406 1.214 4.21 2.285 8.415 3.196 4.804 1.074 8.396 2.537 10.786 4.4 2.386 1.856 3.583 4.385 3.583 7.575 0 3.373-1.363 6.1-4.088 8.186-2.723 2.08-6.324 3.124-10.8 3.124-4.903 0-8.755-1.168-11.55-3.507-2.8-2.34-4.124-5.124-3.976-8.36l.073-.22h4.104c.175 2.892 1.362 5 3.565 6.312 2.2 1.315 4.796 1.973 7.782 1.973 3.232 0 5.78-.71 7.647-2.125 1.867-1.413 2.8-3.13 2.8-5.14" fill="#91928E" mask="url(#b)"/><path d="M.367 4.852h13.126v75.855H.367V4.852zM176.098 33.456c-3.474 0-6.277 1.214-8.412 3.646-2.138 2.43-3.5 5.817-4.092 10.16h24.12v-.94c-.278-4.235-1.404-7.438-3.383-9.612-1.98-2.17-4.723-3.254-8.232-3.254m1.51 48.29c-8.023 0-14.527-2.527-19.51-7.58-4.983-5.05-7.474-11.78-7.474-20.188v-1.56c0-5.63 1.084-10.653 3.256-15.083 2.17-4.426 5.216-7.876 9.142-10.342 3.923-2.465 8.3-3.697 13.126-3.697 7.678 0 13.61 2.45 17.793 7.347 4.188 4.896 6.28 11.823 6.28 20.784v5.108h-36.83c.377 4.653 1.932 8.334 4.658 11.044 2.73 2.706 6.16 4.06 10.29 4.06 5.802 0 10.524-2.342 14.172-7.033l6.825 6.512c-2.258 3.37-5.273 5.98-9.04 7.84-3.768 1.858-8 2.787-12.686 2.787M229.276 71.59c2.5 0 4.854-.607 7.06-1.825 2.205-1.214 3.86-2.848 4.973-4.896V54.24h-6.825c-4.688 0-8.215.815-10.575 2.445-2.362 1.637-3.542 3.946-3.542 6.93 0 2.43.808 4.37 2.424 5.81 1.613 1.44 3.773 2.162 6.484 2.162m13.91 9.113c-.556-1.073-1.043-2.828-1.46-5.257-4.028 4.202-8.96 6.3-14.795 6.3-5.66 0-10.28-1.612-13.857-4.84-3.578-3.23-5.365-7.227-5.365-11.984 0-6.012 2.23-10.622 6.692-13.83 4.464-3.216 10.846-4.82 19.147-4.82h7.762v-3.698c0-2.92-.814-5.256-2.447-7.01-1.635-1.754-4.118-2.63-7.452-2.63-2.882 0-5.243.72-7.083 2.162-1.842 1.44-2.76 3.274-2.76 5.496h-12.66c0-3.092 1.023-5.982 3.074-8.675 2.048-2.69 4.836-4.798 8.36-6.327 3.526-1.53 7.46-2.294 11.8-2.294 6.6 0 11.86 1.66 15.786 4.975 3.924 3.318 5.94 7.98 6.042 13.99V67.68c0 5.072.712 9.115 2.135 12.14v.88h-12.917M289.85 71.64c3.16 0 5.784-.917 7.868-2.76 2.083-1.84 3.193-4.115 3.336-6.827h11.926c-.138 3.51-1.232 6.783-3.28 9.822-2.05 3.04-4.83 5.445-8.336 7.216-3.51 1.774-7.292 2.657-11.358 2.657-7.885 0-14.135-2.553-18.755-7.66-4.618-5.102-6.927-12.155-6.927-21.148v-1.306c0-8.573 2.29-15.445 6.878-20.603 4.584-5.153 10.837-7.734 18.754-7.734 6.704 0 12.166 1.95 16.386 5.86 4.22 3.91 6.432 9.042 6.64 15.394h-11.926c-.143-3.227-1.246-5.886-3.31-7.97-2.068-2.084-4.695-3.124-7.894-3.124-4.097 0-7.26 1.484-9.482 4.455-2.224 2.968-3.35 7.475-3.387 13.517v2.03c0 6.116 1.104 10.674 3.312 13.678 2.205 3.005 5.392 4.504 9.558 4.504M334.483 30.486c4.134-4.795 9.362-7.19 15.68-7.19 12.02 0 18.114 6.86 18.29 20.576v36.834H355.79V44.34c0-3.887-.84-6.64-2.526-8.256-1.682-1.613-4.158-2.422-7.423-2.422-5.068 0-8.854 2.26-11.357 6.773v40.27h-12.658V.686h12.658v29.8M126.302 37.545c-2.503 2.24-5.976 3.36-10.42 3.36h-13.546V15.482h13.91c4.583.068 8.03 1.213 10.34 3.438 2.31 2.223 3.467 5.365 3.467 9.43 0 3.89-1.25 6.952-3.75 9.195m3.018 10.895c4.378-1.84 7.792-4.47 10.237-7.895 2.45-3.425 3.674-7.674 3.674-12.748 0-7.44-2.378-13.124-7.134-17.053-4.76-3.926-11.512-5.89-20.265-5.89H89.157V68.36c-.077 4.035-3.156 7.295-7.21 7.295-4.1 0-7.57-3.335-7.57-7.436V43.456c-.202-13.443-6.18-20.163-17.92-20.163-6.77 0-12.238 2.52-16.407 7.554l-.366-6.506h-11.93v56.364h12.66V40.592c2.5-4.62 6.303-6.93 11.41-6.93 3.508 0 6.03.86 7.58 2.578 1.547 1.72 2.316 4.372 2.316 7.947l-.01 21.4c0 11.164 9.073 20.248 20.235 20.248 11.12 0 20.314-9.008 20.39-20.107V51.53h14.694l15.21 29.176h14.117v-.677L129.32 48.44" fill="#55A144"/></g></svg>

<?xml version="1.0" encoding="UTF-8" standalone="no"?>
<svg width="369px" height="144px" viewBox="0 0 369 144" version="1.1" xmlns="http://www.w3.org/2000/svg" xmlns:xlink="http://www.w3.org/1999/xlink" xmlns:sketch="http://www.bohemiancoding.com/sketch/ns">
    <!-- Generator: Sketch 3.4 (15575) - http://www.bohemiancoding.com/sketch -->
    <title>01_InReach_Logo</title>
    <desc>Created with Sketch.</desc>
    <defs>
        <path id="path-1" d="M0.06,0.685 L368.452,0.685 L368.452,143.94 L0.06,143.94"></path>
    </defs>
    <g id="Page-1" stroke="none" stroke-width="1" fill="none" fill-rule="evenodd" sketch:type="MSPage">
        <g id="01_InReach_Logo" sketch:type="MSLayerGroup">
            <g id="Group-10">
                <mask id="mask-2" sketch:name="Clip 2" fill="white">
                    <use xlink:href="#path-1"></use>
                </mask>
                <g id="Clip-2"></g>
                <path d="M15.746,133.104 L17.051,137.842 L17.276,137.842 L18.694,133.104 L29.665,102.842 L34.292,102.842 L18.956,143.216 L15.374,143.216 L0,102.842 L4.624,102.842 L15.746,133.104" id="Fill-1" fill="#91928E" sketch:type="MSShapeGroup" mask="url(#mask-2)"></path>
                <path d="M53.122,105.898 C49.812,105.898 47.041,107.16 44.803,109.677 C42.562,112.198 41.257,115.354 40.883,119.146 L40.959,119.335 L64.617,119.335 L64.617,118.222 C64.617,114.718 63.587,111.794 61.519,109.439 C59.454,107.081 56.657,105.898 53.122,105.898 M53.684,143.998 C48.634,143.998 44.436,142.135 41.089,138.401 C37.745,134.673 36.071,129.946 36.071,124.224 L36.071,122.168 C36.071,116.401 37.732,111.608 41.053,107.805 C44.373,103.999 48.397,102.097 53.122,102.097 C58.074,102.097 61.968,103.664 64.803,106.797 C67.64,109.932 69.057,114.108 69.057,119.335 L69.057,123.144 L40.546,123.144 L40.546,124.221 C40.546,128.763 41.752,132.562 44.168,135.615 C46.581,138.667 49.753,140.194 53.684,140.194 C56.47,140.194 58.846,139.809 60.811,139.04 C62.776,138.266 64.456,137.162 65.85,135.716 L67.75,138.778 C66.233,140.374 64.312,141.645 61.986,142.586 C59.66,143.53 56.892,143.998 53.684,143.998" id="Fill-3" fill="#91928E" sketch:type="MSShapeGroup" mask="url(#mask-2)"></path>
                <path d="M79.854,102.842 L80.265,109.896 C81.557,107.405 83.307,105.485 85.508,104.127 C87.71,102.77 90.314,102.093 93.326,102.093 C97.704,102.093 101.039,103.433 103.326,106.106 C105.614,108.779 106.76,112.954 106.76,118.624 L106.76,143.216 L102.28,143.216 L102.28,118.612 C102.28,113.976 101.416,110.701 99.687,108.779 C97.957,106.861 95.504,105.902 92.32,105.902 C89.182,105.902 86.627,106.73 84.65,108.387 C82.672,110.044 81.248,112.245 80.379,114.991 L80.379,143.216 L75.899,143.216 L75.899,102.842 L79.854,102.842" id="Fill-4" fill="#91928E" sketch:type="MSShapeGroup" mask="url(#mask-2)"></path>
                <path d="M122.405,102.842 L131.288,102.842 L131.288,106.499 L122.405,106.499 L122.405,132.805 C122.405,135.442 122.882,137.315 123.841,138.423 C124.799,139.532 126.075,140.084 127.665,140.084 C128.389,140.084 129.09,140.049 129.776,139.988 C130.459,139.925 131.25,139.821 132.144,139.671 L132.818,142.989 C132.068,143.315 131.161,143.567 130.093,143.742 C129.021,143.911 127.955,144 126.884,144 C124.046,144 121.839,143.106 120.261,141.314 C118.679,139.523 117.891,136.687 117.891,132.805 L117.891,106.499 L110.913,106.499 L110.913,102.842 L122.405,102.842" id="Fill-5" fill="#91928E" sketch:type="MSShapeGroup" mask="url(#mask-2)"></path>
                <path d="M164.387,136.616 C163.093,138.973 161.35,140.796 159.163,142.08 C156.973,143.36 154.389,143.998 151.399,143.998 C147.145,143.998 143.813,142.559 141.401,139.671 C138.987,136.787 137.782,132.306 137.782,126.239 L137.782,102.842 L142.259,102.842 L142.259,126.362 C142.259,131.298 143.1,134.838 144.779,136.977 C146.455,139.123 148.838,140.194 151.924,140.194 C155.308,140.194 158.004,139.435 160.02,137.912 C162.034,136.392 163.442,134.3 164.239,131.635 L164.239,102.842 L168.716,102.842 L168.716,143.216 L164.761,143.216 L164.387,136.616" id="Fill-6" fill="#91928E" sketch:type="MSShapeGroup" mask="url(#mask-2)"></path>
                <path d="M196.668,106.684 L193.348,106.46 C190.535,106.46 188.23,107.253 186.426,108.831 C184.621,110.41 183.333,112.581 182.564,115.341 L182.564,143.216 L178.084,143.216 L178.084,102.842 L182.002,102.842 L182.564,109.558 L182.564,110.004 C183.732,107.517 185.298,105.577 187.263,104.184 C189.228,102.788 191.568,102.093 194.277,102.093 C194.852,102.093 195.407,102.14 195.939,102.226 C196.475,102.314 196.917,102.408 197.265,102.506 L196.668,106.684" id="Fill-7" fill="#91928E" sketch:type="MSShapeGroup" mask="url(#mask-2)"></path>
                <path d="M215.643,105.898 C212.333,105.898 209.562,107.16 207.323,109.677 C205.083,112.198 203.777,115.354 203.403,119.146 L203.478,119.335 L227.136,119.335 L227.136,118.222 C227.136,114.718 226.106,111.794 224.038,109.439 C221.973,107.081 219.177,105.898 215.643,105.898 M216.204,143.998 C211.153,143.998 206.956,142.135 203.608,138.401 C200.264,134.673 198.589,129.946 198.589,124.224 L198.589,122.168 C198.589,116.401 200.252,111.608 203.572,107.805 C206.893,103.999 210.918,102.097 215.643,102.097 C220.595,102.097 224.487,103.664 227.324,106.797 C230.16,109.932 231.577,114.108 231.577,119.335 L231.577,123.144 L203.067,123.144 L203.067,124.221 C203.067,128.763 204.273,132.562 206.687,135.615 C209.102,138.667 212.273,140.194 216.204,140.194 C218.989,140.194 221.367,139.809 223.329,139.04 C225.296,138.266 226.975,137.162 228.371,135.716 L230.27,138.778 C228.752,140.374 226.831,141.645 224.506,142.586 C222.18,143.53 219.412,143.998 216.204,143.998" id="Fill-8" fill="#91928E" sketch:type="MSShapeGroup" mask="url(#mask-2)"></path>
                <path d="M262.241,132.932 C262.241,131.048 261.462,129.397 259.911,127.983 C258.354,126.569 255.547,125.416 251.492,124.519 C246.665,123.476 243.105,122.093 240.801,120.382 C238.5,118.663 237.349,116.238 237.349,113.103 C237.349,110.018 238.652,107.414 241.249,105.284 C243.849,103.156 247.29,102.093 251.568,102.093 C256.121,102.093 259.727,103.22 262.389,105.472 C265.051,107.722 266.322,110.542 266.196,113.922 L266.121,114.148 L261.979,114.148 C261.979,111.935 261.042,110.004 259.161,108.365 C257.283,106.722 254.749,105.898 251.568,105.898 C248.308,105.898 245.865,106.604 244.237,107.999 C242.602,109.395 241.79,111.037 241.79,112.915 C241.79,114.774 242.493,116.311 243.9,117.52 C245.306,118.734 248.111,119.805 252.315,120.716 C257.119,121.79 260.711,123.253 263.101,125.116 C265.486,126.972 266.683,129.501 266.683,132.691 C266.683,136.063 265.32,138.791 262.595,140.876 C259.872,142.956 256.271,144 251.794,144 C246.892,144 243.04,142.832 240.244,140.493 C237.445,138.154 236.121,135.369 236.269,132.132 L236.343,131.913 L240.447,131.913 C240.622,134.805 241.809,136.914 244.012,138.225 C246.213,139.54 248.808,140.198 251.794,140.198 C255.026,140.198 257.575,139.488 259.441,138.073 C261.307,136.66 262.241,134.944 262.241,132.932" id="Fill-9" fill="#91928E" sketch:type="MSShapeGroup" mask="url(#mask-2)"></path>
            </g>
            <path d="M0.367,4.852 L13.493,4.852 L13.493,80.707 L0.367,80.707 L0.367,4.852 Z" id="Fill-11" fill="#55A144" sketch:type="MSShapeGroup"></path>
            <path d="M176.098,33.456 C172.624,33.456 169.821,34.67 167.686,37.102 C165.548,39.531 164.185,42.919 163.594,47.261 L187.715,47.261 L187.715,46.322 C187.436,42.087 186.31,38.884 184.331,36.71 C182.35,34.54 179.607,33.456 176.098,33.456 M177.609,81.747 C169.585,81.747 163.081,79.219 158.099,74.166 C153.115,69.115 150.624,62.385 150.624,53.978 L150.624,52.419 C150.624,46.788 151.708,41.765 153.88,37.335 C156.049,32.909 159.096,29.459 163.022,26.993 C166.945,24.528 171.322,23.296 176.148,23.296 C183.826,23.296 189.757,25.745 193.941,30.643 C198.128,35.539 200.22,42.466 200.22,51.427 L200.22,56.535 L163.389,56.535 C163.767,61.188 165.322,64.869 168.048,67.579 C170.777,70.286 174.208,71.639 178.338,71.639 C184.14,71.639 188.862,69.298 192.51,64.607 L199.335,71.119 C197.077,74.491 194.062,77.101 190.295,78.96 C186.527,80.818 182.295,81.747 177.609,81.747" id="Fill-12" fill="#55A144" sketch:type="MSShapeGroup"></path>
            <path d="M229.276,71.589 C231.775,71.589 234.13,70.983 236.335,69.765 C238.541,68.551 240.197,66.917 241.309,64.869 L241.309,54.242 L234.485,54.242 C229.797,54.242 226.27,55.057 223.91,56.687 C221.548,58.324 220.368,60.633 220.368,63.618 C220.368,66.048 221.176,67.986 222.792,69.427 C224.405,70.867 226.565,71.589 229.276,71.589 M243.186,80.703 C242.63,79.63 242.143,77.875 241.725,75.446 C237.698,79.648 232.766,81.747 226.931,81.747 C221.269,81.747 216.65,80.134 213.073,76.905 C209.495,73.675 207.708,69.679 207.708,64.922 C207.708,58.91 209.938,54.3 214.4,51.091 C218.864,47.876 225.246,46.271 233.547,46.271 L241.309,46.271 L241.309,42.574 C241.309,39.653 240.496,37.318 238.863,35.564 C237.228,33.81 234.745,32.933 231.411,32.933 C228.528,32.933 226.167,33.655 224.327,35.096 C222.485,36.537 221.567,38.37 221.567,40.592 L208.908,40.592 C208.908,37.5 209.93,34.61 211.981,31.917 C214.028,29.226 216.816,27.119 220.339,25.59 C223.866,24.061 227.799,23.296 232.14,23.296 C238.74,23.296 244.001,24.956 247.926,28.271 C251.85,31.588 253.865,36.25 253.968,42.259 L253.968,67.682 C253.968,72.754 254.68,76.797 256.103,79.821 L256.103,80.703 L243.186,80.703" id="Fill-13" fill="#55A144" sketch:type="MSShapeGroup"></path>
            <path d="M289.85,71.639 C293.01,71.639 295.634,70.723 297.718,68.879 C299.801,67.039 300.911,64.765 301.054,62.053 L312.98,62.053 C312.842,65.564 311.748,68.836 309.699,71.875 C307.649,74.916 304.871,77.32 301.364,79.091 C297.855,80.864 294.072,81.747 290.006,81.747 C282.121,81.747 275.871,79.194 271.251,74.088 C266.632,68.985 264.323,61.932 264.323,52.939 L264.323,51.634 C264.323,43.061 266.614,36.189 271.201,31.031 C275.784,25.877 282.037,23.296 289.954,23.296 C296.658,23.296 302.12,25.247 306.34,29.155 C310.559,33.065 312.772,38.198 312.98,44.55 L301.054,44.55 C300.911,41.323 299.808,38.664 297.743,36.581 C295.676,34.496 293.049,33.456 289.85,33.456 C285.753,33.456 282.59,34.94 280.368,37.911 C278.144,40.878 277.018,45.385 276.981,51.427 L276.981,53.457 C276.981,59.573 278.084,64.131 280.292,67.135 C282.497,70.14 285.684,71.639 289.85,71.639" id="Fill-14" fill="#55A144" sketch:type="MSShapeGroup"></path>
            <path d="M334.483,30.486 C338.617,25.691 343.845,23.296 350.164,23.296 C362.182,23.296 368.277,30.156 368.452,43.872 L368.452,80.706 L355.79,80.706 L355.79,44.341 C355.79,40.453 354.949,37.701 353.264,36.084 C351.582,34.471 349.106,33.662 345.841,33.662 C340.772,33.662 336.986,35.921 334.483,40.435 L334.483,80.706 L321.825,80.706 L321.825,0.685 L334.483,0.685 L334.483,30.486" id="Fill-15" fill="#55A144" sketch:type="MSShapeGroup"></path>
            <path d="M126.302,37.545 C123.799,39.784 120.326,40.904 115.881,40.904 L102.336,40.904 L102.336,15.483 L116.246,15.483 C120.829,15.551 124.276,16.696 126.587,18.921 C128.896,21.143 130.053,24.285 130.053,28.349 C130.053,32.239 128.803,35.302 126.302,37.545 M129.321,48.44 C133.698,46.6 137.112,43.969 139.557,40.545 C142.007,37.12 143.231,32.871 143.231,27.797 C143.231,20.356 140.852,14.673 136.096,10.744 C131.336,6.818 124.584,4.855 115.831,4.855 L89.156,4.855 L89.156,68.36 C89.079,72.395 86,75.655 81.945,75.655 C77.846,75.655 74.377,72.32 74.377,68.219 L74.377,43.457 C74.174,30.014 68.197,23.294 56.457,23.294 C49.686,23.294 44.218,25.813 40.049,30.848 L39.684,24.342 L27.753,24.342 L27.753,80.706 L40.413,80.706 L40.413,40.592 C42.913,35.973 46.717,33.662 51.824,33.662 C55.332,33.662 57.855,34.523 59.404,36.24 C60.951,37.96 61.72,40.612 61.72,44.187 L61.709,65.586 C61.709,76.751 70.783,85.835 81.945,85.835 C93.064,85.835 102.259,76.827 102.336,65.728 L102.336,51.531 L117.029,51.531 L132.239,80.706 L146.357,80.706 L146.357,80.029 L129.321,48.44" id="Fill-16" fill="#55A144" sketch:type="MSShapeGroup"></path>
        </g>
    </g>
</svg>
